!!!!SEGMENT: pl-sa--549-a-ix-29--043_anonim--vals.krn
!!!cenid: 18xx:497
!!!COM: Anonim
!!!COM-rismID: pe30004985
!!!CDT:
!!!CNT:
!!!OTL: Vals
!!!PDT:
!!!AGN: Secular; Waltz
!!!SMS-siglum: PL-SA
!!!SMS-shelfmark: 549/A IX 29
!!!SMS-shelfwork: 043 W
!!!SMS-variant:
!!!SMS-altvar:
!!!NIFC-rismSourceID: 1001068943
!!!NIFC-rismChildID: 1001068943
!!!NIFC-islandoraID:
!!!URL-pdf-islandora:
!!!URL-scan: https://bc.bdsandomierz.pl/dlibra/publication/1441/edition/1409/content @EN{Scan in the Sandomierz Diocese Digital Library} @PL{Skany w portalu Cyfrowa Biblioteka Diecezjalna w Sandomierzu}
!!!ONB-nifc: Str. 31, s. 2-6
!!!AIN: 1 piano
!!!key: D
**kern	**kern	**dynam
*group1	*group1	*
*part1	*part1	*part1
*staff2	*staff1	*
*I"[Piano]	*I"[Piano]	*
*Ipiano	*Ipiano	*
*ICklav	*ICklav	*
*clefF4	*clefG2	*
*k[f#c#]	*k[f#c#]	*
*D:	*D:	*
*M3/8	*M3/8	*
8r	8a/	.
=1	=1	=1
8D\L	8a\L	.
8F#\ 8A\ 8d\	8ff#\	.
8F#\J 8A\ 8d\	8ff#\J	.
=2	=2	=2
*rep	*	*
8D\L	8ff#\L	.
8F#\ 8A\ 8d\	8ee\	.
8F#\J 8A\ 8d\	8b\J	.
*Xrep	*	*
=3	=3	=3
*rep	*	*
8D\L	8b\L	.
8F#\ 8A\ 8d\	8bb\	.
8F#\J 8A\ 8d\	8bb\J	.
*Xrep	*	*
=4	=4	=4
*rep	*	*
8D\L	8bb\L	.
8F#\ 8A\ 8d\	8aa\	.
8F#\J 8A\ 8d\	8ff#\J	.
*Xrep	*	*
=5	=5	=5
!!mixed beam:problem
!LO:TX:t=P:problem=mixed beam	!	!
8AA/L	8ff#\L	.
8A\ 8c#\ 8e\	8gg\	.
8A\J 8c#\ 8e\	8gg\J	.
=6	=6	=6
*rep	*	*
8AA/L	8gg\L	.
8A\ 8c#\ 8e\	8b\	.
8A\J 8c#\ 8e\	8cc#\J	.
*Xrep	*	*
=7	=7	=7
.	8qee/	.
8D\L	16dd\LL	.
.	16cc#\	.
8F#\ 8A\ 8d\	16dd\	.
.	16ee\	.
8F#\J 8A\ 8d\	16ff#\	.
.	16dd\JJ	.
=8	=8	=8
*rep	*	*
8D\L	4a/	.
8F#\ 8A\ 8d\	.	.
8F#\J 8A\ 8d\	8a/	.
*Xrep	*	*
!!LO:LB:g=original
=9	=9	=9
*rep	*	*
8D\L	8a\L	.
8F#\ 8A\ 8d\	8ff#\	.
8F#\J 8A\ 8d\	8ff#\J	.
*Xrep	*	*
=10	=10	=10
*rep	*	*
8D\L	8ff#\L	.
8F#\ 8A\ 8d\	8ee\	.
8F#\J 8A\ 8d\	8dd\J	.
*Xrep	*	*
=11	=11	=11
*rep	*	*
8D\L	8b\L	.
8F#\ 8A\ 8d\	8bb\	.
8F#\J 8A\ 8d\	8bb\J	.
*Xrep	*	*
=12	=12	=12
*rep	*	*
8D\L	8bb\L	.
8F#\ 8A\ 8d\	8aa\	.
8F#\J 8A\ 8d\	8ff#\J	.
*Xrep	*	*
=13	=13	=13
!!mixed beam:problem
!LO:TX:t=P:problem=mixed beam	!	!
8AA/L	8ff#\L	.
8A\ 8c#\ 8e\	8gg\	.
8A\J 8c#\ 8e\	8gg\J	.
=14	=14	=14
*rep	*	*
8AA/L	8gg\L	.
8A\ 8c#\ 8e\	8b\	.
8A\J 8c#\ 8e\	8cc#\J	.
*Xrep	*	*
=15	=15	=15
.	8qee/	.
8D\L	16dd\LL	.
.	16cc#\	.
8F#\ 8A\ 8d\	16dd\	.
.	16ee\	.
8F#\J 8A\ 8d\	16ff#\	.
.	16ee\JJ	.
=16	=16	=16
*rep	*	*
8D\L	4dd\	.
8F#\ 8A\ 8d\	.	.
8F#\J 8A\ 8d\	8a\ 8aa\	.
*Xrep	*	*
=17	=17	=17
*rep	*	*
8D\L	8a\L 8aa\	.
8F#\ 8A\ 8d\	8ff#\ 8fff#\	.
8F#\J 8A\ 8d\	8ff#\J 8fff#\	.
*Xrep	*	*
!!LO:LB:g=original
=18	=18	=18
*rep	*	*
8D\L	8ff#\L 8fff#\	.
8F#\ 8A\ 8d\	8ee\ 8eee\	.
8F#\J 8A\ 8d\	8dd\J 8ddd\	.
*Xrep	*	*
=19	=19	=19
*rep	*	*
8D\L	8b\L	.
8F#\ 8A\ 8d\	8b\ 8bb\	.
8F#\J 8A\ 8d\	8b\J 8bb\	.
*Xrep	*	*
=20	=20	=20
*rep	*	*
8D\L	8b\L 8bb\	.
8F#\ 8A\ 8d\	8a\ 8aa\	.
8F#\J 8A\ 8d\	8f#\J 8ff#\	.
*Xrep	*	*
=21	=21	=21
!!mixed beam:problem
!LO:TX:t=P:problem=mixed beam	!	!
8AA/L	8f#\L 8ff#\	.
8A\ 8c#\ 8e\	8g\ 8gg\	.
8A\J 8c#\ 8e\	8g\J 8gg\	.
=22	=22	=22
*rep	*	*
8AA/L	8g/L 8gg/	.
8A\ 8c#\ 8e\	8B/ 8b/	.
8A\J 8c#\ 8e\	8c#/J 8cc#/	.
*Xrep	*	*
=23	=23	=23
.	8qee/	.
8D\L	16dd\LL	.
.	16cc#\	.
8F#\ 8A\ 8d\	16dd\	.
.	16ee\	.
8F#\J 8A\ 8d\	16ff#\	.
.	16ee\JJ	.
=24	=24	=24
*rep	*	*
8D\L	4dd\	.
8F#\ 8A\ 8d\	.	.
8F#\J 8A\ 8d\	8a\ 8aa\	.
*Xrep	*	*
=25	=25	=25
*rep	*	*
8D\L	8A/L 8a	.
8F#\ 8A\ 8d\	8f#/ 8ff#	.
8F#\J 8A\ 8d\	8f#/J 8ff#	.
*Xrep	*	*
=26	=26	=26
*rep	*	*
8D\L	8f#/L 8ff#	.
8F#\ 8A\ 8d\	8e/ 8ee	.
8F#\J 8A\ 8d\	8d/J 8dd	.
*Xrep	*	*
!!LO:LB:g=original
=27	=27	=27
*rep	*	*
8D\L	8B/ 8b/	.
8F#\ 8A\ 8d\	8b\L 8bb\	.
8F#\J 8A\ 8d\	8b\J 8bb\	.
*Xrep	*	*
=28	=28	=28
*rep	*	*
8D\L	8b\L 8bb\	.
8F#\ 8A\ 8d\	8a\ 8aa\	.
8F#\J 8A\ 8d\	8g\J 8gg\	.
*Xrep	*	*
=29	=29	=29
!!mixed beam:problem
!LO:TX:t=P:problem=mixed beam	!	!
8AA/L	8f#\L 8ff#\	.
8A\ 8c#\ 8e\	8g\ 8gg\	.
8A\J 8c#\ 8e\	8g\J 8gg\	.
=30	=30	=30
*rep	*	*
8AA/L	8g/L 8gg/	.
8A\ 8c#\ 8e\	8B/ 8b/	.
8A\J 8c#\ 8e\	8c#/J 8cc#/	.
*Xrep	*	*
=31	=31	=31
.	8qee/	.
8D\L	16dd\LL	.
.	16cc#\	.
8F#\ 8A\ 8d\	16dd\	.
.	16ee\	.
8F#\J 8A\ 8d\	16ff#\	.
.	16ee\JJ	.
!!LO:LB:g=original
=32:|!|:	=32:|!|:	=32:|!|:
8r	16cc#\LL	p
.	16dd\JJ	.
=33	=33	=33
8G#X\L	8ff#\L	.
8B\ 8d\	8ee\	.
8B\J 8d\ 8g\	8b\J	.
=34	=34	=34
*rep	*	*
8G#X\L	8b\L	.
8B\ 8d\	8cc#\	.
8B\J 8d\ 8g\	8dd\J	.
*Xrep	*	*
=35	=35	=35
8A\L	8ff#\L	.
8c#\ 8e\	8ee\	.
8c#\J 8e\	8a\J	.
=36	=36	=36
*rep	*	*
8A\L	8a\L	.
.	8qcc#/	.
8c#\ 8e\	8b\	.
8c#\J 8e\	8a\J	.
*Xrep	*	*
=37	=37	=37
8F#\L	8a\L	.
8A\ 8d\	8cc#\	.
8A\J 8d\	8dd\J	.
=38	=38	=38
.	16qqdd/LL	.
.	16qqee/JJ	.
8G#X\L	8ff#\L	.
8B\ 8e\ 8g\	8ee\	.
8B\J 8e\ 8g\	8dd\J	.
=39	=39	=39
.	8qdd/	.
8A\L	8cc#\L	.
8c#\ 8e\	8b\	.
8c#\J 8e\	8a\J	.
=40	=40	=40
!!mixed beam:problem
!LO:TX:t=P:problem=mixed beam	!	!
8AA/L	8aa\L	.
8A\ 8c#\ 8e\	8cc#\	.
8A\J 8c#\ 8e\	8dd\J	.
=41	=41	=41
8G#X\L	8ff#\L	.
8B\ 8e\ 8g\	8ee\	.
8B\J 8e\ 8g\	8b\J	.
=42	=42	=42
*rep	*	*
8G#X\L	8b\L	.
8B\ 8e\ 8g\	8cc#\	.
8B\J 8e\ 8g\	8dd\J	.
*Xrep	*	*
!!LO:TX:t=P:problem:brak podwójnej kreski końcowej
=	=	=
*-	*-	*-
!!!system-decoration: [{g1}]
!!!RDF**kern: > = above
!!!RDF**kern: < = below
!!!ENC: Anastazja Marusiak
!!!END: 2020-06-17
!!!EED: Jędrzej Mróz
!!!EEV: 2022-01-05
!!!YEC: Copyright 2022 Narodowy Instytut Fryderyka Chopina (https://polishscores.org)
!!!YEM: License CC-BY-4.0 (https://creativecommons.org/licenses/by/4.0)
